public/assets/images/service/09.svg

<svg width="60" height="60" viewBox="0 0 60 60" fill="none" xmlns="http://www.w3.org/2000/svg">
<path fill-rule="evenodd" clip-rule="evenodd" d="M47.6682 38.09H40.3187V32.0554C40.3187 30.2976 39.253 28.7751 37.7305 28.1107V24.6505C37.7305 20.8581 34.6578 17.7855 30.8655 17.7855H29.1215C25.3291 17.7855 22.2565 20.8581 22.2565 24.6505V28.1246C20.734 28.7751 19.6821 30.2976 19.6821 32.0554V38.09H12.3326C9.43986 38.09 7.08691 35.737 7.08691 32.8443V5.19031C7.08691 2.32526 9.41217 0 12.2772 0H25.1769C28.0281 0 30.3672 2.32526 30.3672 5.19031V6.53287H29.426C28.734 6.53287 28.1388 6.90657 27.8066 7.47405H15.5021C15.2392 7.47405 15.0316 7.68166 15.0316 7.94464C15.0316 8.19377 15.2392 8.40138 15.5021 8.40138H27.5575V11.5571C27.5575 14.9343 30.298 17.6886 33.689 17.6886H51.9727C52.3049 17.6886 52.6371 17.5917 52.9139 17.4394V32.8443C52.9139 35.7509 50.561 38.09 47.6682 38.09Z" fill="#0F62FE"/>
<path fill-rule="evenodd" clip-rule="evenodd" d="M51.9731 16.746H33.6893C30.8243 16.746 28.499 14.4208 28.499 11.5557V8.39999C28.499 7.88788 28.9142 7.47266 29.4264 7.47266H47.6686C50.5613 7.47266 52.9142 9.8256 52.9142 12.7183V15.8048C52.9142 16.3308 52.4852 16.746 51.9731 16.746Z" fill="#0F62FE"/>
<path fill-rule="evenodd" clip-rule="evenodd" d="M36.0281 46.5894H23.9589C22.118 46.5894 20.6094 45.0946 20.6094 43.2399V32.0565C20.6094 30.2018 22.118 28.707 23.9589 28.707H36.0281C37.8827 28.707 39.3775 30.2018 39.3775 32.0565V43.2399C39.3775 45.0946 37.8827 46.5894 36.0281 46.5894ZM29.9935 42.3403C31.5852 42.3403 32.8585 41.0531 32.8585 39.4752C32.8585 38.0496 31.8204 36.8731 30.464 36.6517V33.4268C30.464 33.1638 30.2564 32.9562 29.9935 32.9562C29.7443 32.9562 29.5229 33.1638 29.5229 33.4268V36.6517C28.1665 36.8731 27.1284 38.0496 27.1284 39.4752C27.1284 41.0531 28.4156 42.3403 29.9935 42.3403ZM29.9935 37.5513C31.0592 37.5513 31.9312 38.4095 31.9312 39.4752C31.9312 40.5409 31.0592 41.4129 29.9935 41.4129C28.9277 41.4129 28.0696 40.5409 28.0696 39.4752C28.0696 38.4095 28.9277 37.5513 29.9935 37.5513Z" fill="#0F62FE"/>
<path fill-rule="evenodd" clip-rule="evenodd" d="M35.8616 30.5743H24.1246C23.6125 30.5743 23.1973 30.1591 23.1973 29.6331V24.6504C23.1973 21.384 25.8547 18.7266 29.1211 18.7266H30.8651C34.1454 18.7266 36.8028 21.384 36.8028 24.6504V29.6331C36.8028 30.1591 36.3876 30.5743 35.8616 30.5743ZM25.0658 28.7058H34.9343V24.6504C34.9343 22.4082 33.1073 20.5951 30.8789 20.5951H29.1211C26.8928 20.5951 25.0658 22.4082 25.0658 24.6504V28.7058Z" fill="#0F62FE"/>
<path fill-rule="evenodd" clip-rule="evenodd" d="M21.6475 56.0405C21.1215 56.0405 20.7063 55.6253 20.7063 55.0994V51.1271C20.7063 50.781 20.8862 50.4765 21.1769 50.3104L23.0316 49.2447V45.6461C23.0316 45.134 23.4468 44.7188 23.9727 44.7188C24.4848 44.7188 24.9001 45.134 24.9001 45.6461V49.7845C24.9001 50.1167 24.7201 50.4212 24.4295 50.5873L22.5748 51.653V55.0994C22.5748 55.6253 22.1596 56.0405 21.6475 56.0405Z" fill="#0F62FE"/>
<path fill-rule="evenodd" clip-rule="evenodd" d="M38.3534 56.0405C37.8412 56.0405 37.4122 55.6253 37.4122 55.0994V51.653L35.5575 50.5873C35.2668 50.4212 35.0869 50.1167 35.0869 49.7845V45.6461C35.0869 45.134 35.516 44.7188 36.0281 44.7188C36.5402 44.7188 36.9693 45.134 36.9693 45.6461V49.2309L38.8239 50.3104C39.1146 50.4765 39.2945 50.781 39.2945 51.1132V55.0994C39.2945 55.6253 38.8655 56.0405 38.3534 56.0405Z" fill="#0F62FE"/>
<path fill-rule="evenodd" clip-rule="evenodd" d="M29.9937 52.9956C29.4816 52.9956 29.0664 52.5803 29.0664 52.0544V45.6461C29.0664 45.134 29.4816 44.7188 29.9937 44.7188C30.5197 44.7188 30.9349 45.134 30.9349 45.6461V52.0544C30.9349 52.5803 30.5197 52.9956 29.9937 52.9956Z" fill="#0F62FE"/>
<path fill-rule="evenodd" clip-rule="evenodd" d="M21.648 59.9989C20.0424 59.9989 18.7275 58.684 18.7275 57.0784C18.7275 55.4729 20.0424 54.1719 21.648 54.1719C23.2535 54.1719 24.5545 55.4729 24.5545 57.0784C24.5545 58.684 23.2535 59.9989 21.648 59.9989Z" fill="#0F62FE"/>
<path fill-rule="evenodd" clip-rule="evenodd" d="M29.9935 56.9559C28.388 56.9559 27.0869 55.6549 27.0869 54.0493C27.0869 52.4299 28.388 51.1289 29.9935 51.1289C31.599 51.1289 32.9139 52.4299 32.9139 54.0493C32.9139 55.6549 31.599 56.9559 29.9935 56.9559Z" fill="#0F62FE"/>
<path fill-rule="evenodd" clip-rule="evenodd" d="M38.353 59.9989C36.7475 59.9989 35.4326 58.684 35.4326 57.0784C35.4326 55.4729 36.7475 54.1719 38.353 54.1719C39.9586 54.1719 41.2734 55.4729 41.2734 57.0784C41.2734 58.684 39.9586 59.9989 38.353 59.9989Z" fill="#0F62FE"/>
</svg>

<svg xmlns="http://www.w3.org/2000/svg" width="60" height="60" fill="none" viewBox="0 0 60 60"><path fill="#0f62fe" fill-rule="evenodd" d="M47.668 38.09h-7.35v-6.035a4.31 4.31 0 0 0-2.587-3.944v-3.46a6.864 6.864 0 0 0-6.866-6.866h-1.743a6.864 6.864 0 0 0-6.866 6.866v3.474a4.27 4.27 0 0 0-2.574 3.93v6.035h-7.35a5.25 5.25 0 0 1-5.245-5.246V5.19A5.19 5.19 0 0 1 12.277 0h12.9a5.2 5.2 0 0 1 5.19 5.19v1.343h-.941a1.87 1.87 0 0 0-1.62.941H15.503a.464.464 0 1 0 0 .927h12.056v3.156a6.134 6.134 0 0 0 6.131 6.132h18.284c.332 0 .664-.097.94-.25v15.405a5.24 5.24 0 0 1-5.245 5.246" clip-rule="evenodd"/><path fill="#0f62fe" fill-rule="evenodd" d="M51.973 16.746H33.69a5.19 5.19 0 0 1-5.19-5.19V8.4c0-.512.415-.927.927-.927H47.67a5.25 5.25 0 0 1 5.245 5.245v3.087a.94.94 0 0 1-.94.941M36.028 46.59h-12.07a3.35 3.35 0 0 1-3.349-3.35V32.056a3.35 3.35 0 0 1 3.35-3.349h12.07a3.343 3.343 0 0 1 3.348 3.35V43.24a3.343 3.343 0 0 1-3.349 3.35m-6.034-4.25a2.86 2.86 0 0 0 2.864-2.865 2.86 2.86 0 0 0-2.394-2.823v-3.225a.467.467 0 0 0-.47-.47.475.475 0 0 0-.471.47v3.225a2.86 2.86 0 0 0-2.395 2.823 2.87 2.87 0 0 0 2.866 2.865m0-4.789c1.065 0 1.937.858 1.937 1.924a1.943 1.943 0 0 1-1.937 1.938 1.93 1.93 0 0 1-1.924-1.938 1.92 1.92 0 0 1 1.924-1.924" clip-rule="evenodd"/><path fill="#0f62fe" fill-rule="evenodd" d="M35.862 30.574H24.125a.93.93 0 0 1-.928-.94V24.65a5.93 5.93 0 0 1 5.924-5.923h1.744c3.28 0 5.938 2.657 5.938 5.923v4.983a.933.933 0 0 1-.941.941m-10.796-1.868h9.868V24.65a4.06 4.06 0 0 0-4.055-4.055H29.12a4.06 4.06 0 0 0-4.055 4.055zM21.648 56.04a.933.933 0 0 1-.942-.94v-3.973c0-.346.18-.65.47-.817l1.856-1.065v-3.599a.93.93 0 0 1 .94-.927c.513 0 .928.415.928.927v4.139c0 .332-.18.636-.47.802l-1.855 1.066v3.446a.93.93 0 0 1-.927.942m16.705-.001a.94.94 0 0 1-.94-.94v-3.447l-1.855-1.066a.93.93 0 0 1-.471-.803v-4.138a.94.94 0 0 1 .941-.927.94.94 0 0 1 .941.927v3.585l1.855 1.08c.29.166.47.47.47.802V55.1a.94.94 0 0 1-.94.942m-8.36-3.046a.93.93 0 0 1-.928-.942v-6.408c0-.512.416-.927.928-.927a.93.93 0 0 1 .94.927v6.408a.933.933 0 0 1-.94.942" clip-rule="evenodd"/><path fill="#0f62fe" fill-rule="evenodd" d="M21.648 59.999a2.93 2.93 0 0 1-2.92-2.92 2.92 2.92 0 0 1 2.92-2.907 2.906 2.906 0 0 1 2.907 2.906 2.92 2.92 0 0 1-2.907 2.92m8.346-3.042a2.906 2.906 0 0 1-2.907-2.907 2.91 2.91 0 0 1 2.907-2.92 2.92 2.92 0 0 1 2.92 2.92 2.92 2.92 0 0 1-2.92 2.907m8.359 3.043a2.93 2.93 0 0 1-2.92-2.92 2.92 2.92 0 0 1 2.92-2.907 2.92 2.92 0 0 1 2.92 2.906 2.93 2.93 0 0 1-2.92 2.92" clip-rule="evenodd"/></svg>
